icons/arrow-square-toprightB.svg

<svg width="24" height="24" viewBox="0 0 24 24" fill="none" xmlns="http://www.w3.org/2000/svg">
<path d="M21 9V15C21 18.3 18.3 21 15 21H9C5.7 21 3 18.3 3 15V9C3 5.7 5.7 3 9 3H15C18.3 3 21 5.6 21 9Z" fill="black"/>
<path fill-rule="evenodd" clip-rule="evenodd" d="M9 3.75C6.11421 3.75 3.75 6.11421 3.75 9V15C3.75 17.8858 6.11421 20.25 9 20.25H15C17.8858 20.25 20.25 17.8858 20.25 15V9C20.25 6.02236 17.894 3.75 15 3.75H9ZM2.25 9C2.25 5.28579 5.28579 2.25 9 2.25H15C18.706 2.25 21.75 5.17764 21.75 9V15C21.75 18.7142 18.7142 21.75 15 21.75H9C5.28579 21.75 2.25 18.7142 2.25 15V9Z" fill="black"/>
<path d="M10.4121 9.48235L13.9477 9.48235C14.2305 9.48235 14.4426 9.69449 14.4426 9.97733L14.4426 13.5129" fill="black"/>
<path fill-rule="evenodd" clip-rule="evenodd" d="M13.6926 10.2323L13.6926 13.5129C13.6926 13.9271 14.0284 14.2629 14.4426 14.2629C14.8568 14.2629 15.1926 13.9271 15.1926 13.5129V9.97732C15.1926 9.28026 14.6447 8.73234 13.9477 8.73234L13.9477 9.48234L13.9477 8.73234L10.4121 8.73234C9.9979 8.73234 9.66212 9.06813 9.66212 9.48234C9.66212 9.89656 9.9979 10.2323 10.4121 10.2323L13.6926 10.2323Z" fill="white"/>
<path fill-rule="evenodd" clip-rule="evenodd" d="M14.4072 9.58844C14.7001 9.88133 14.7001 10.3562 14.4072 10.6491L10.1646 14.8917C9.87169 15.1846 9.39681 15.1846 9.10392 14.8917C8.81103 14.5988 8.81103 14.124 9.10392 13.8311L13.3466 9.58844C13.6395 9.29554 14.1143 9.29554 14.4072 9.58844Z" fill="white"/>
</svg>

<svg xmlns="http://www.w3.org/2000/svg" fill="none" viewBox="0 0 24 24">
  <path fill="#000" d="M21 9v6c0 3.3-2.7 6-6 6H9c-3.3 0-6-2.7-6-6V9c0-3.3 2.7-6 6-6h6c3.3 0 6 2.6 6 6Z"/>
  <path fill="#000" fill-rule="evenodd" d="M9 3.75C6.114 3.75 3.75 6.114 3.75 9v6c0 2.886 2.364 5.25 5.25 5.25h6c2.886 0 5.25-2.364 5.25-5.25V9c0-2.978-2.356-5.25-5.25-5.25H9ZM2.25 9c0-3.714 3.036-6.75 6.75-6.75h6c3.706 0 6.75 2.928 6.75 6.75v6c0 3.714-3.036 6.75-6.75 6.75H9c-3.714 0-6.75-3.036-6.75-6.75V9Z" clip-rule="evenodd"/>
  <path fill="#000" d="M10.412 9.482h3.536c.282 0 .495.212.495.495v3.536"/>
  <path fill="#fff" fill-rule="evenodd" d="M13.693 10.232v3.28a.75.75 0 0 0 1.5 0V9.978c0-.697-.548-1.245-1.245-1.245v.75-.75h-3.536a.75.75 0 0 0 0 1.5h3.28Z" clip-rule="evenodd"/>
  <path fill="#fff" fill-rule="evenodd" d="M14.407 9.588a.75.75 0 0 1 0 1.061l-4.242 4.243a.75.75 0 0 1-1.061-1.06l4.243-4.244a.75.75 0 0 1 1.06 0Z" clip-rule="evenodd"/>
</svg>
